!!!COM:	Martini, Johannes
!!!CDT:	~1440///-~1497//
!!!OTL:	J'espoir mieulx
!!!AGN:	Song; Chanson
!!!SCT:	Mar3015
!!!SCA:	Mar3015
!!!voices:	3
**kern	**kern	**kern
*staff3	*staff2	*staff1
*Ivox	*Ivox	*Ivox
*I"Bassus	*I"Tenor	*I"Cantus
*I'B	*I'T	*I'Cn
*clefF4	*clefGv2	*clefG2
*k[]	*k[]	*k[]
*M2/1	*M2/1	*M2/1
*met(C|)	*met(C|)	*met(C|)
=1-	=1-	=1-
0B	0r	0r
=2	=2	=2
1c	0r	0r
1c	.	.
=3	=3	=3
1B	0B	0r
1G	.	.
=4	=4	=4
1.A	1c	0r
.	1c	.
4G\	.	.
4F\	.	.
=5	=5	=5
1E	1B	0b
1G	1G	.
=6	=6	=6
1F	1.A	1cc
1F	.	1cc
.	4G/	.
.	4F/	.
=7	=7	=7
1.G	1E	1b
.	1G	1g
4F\	.	.
4E\	.	.
=8	=8	=8
0D	1F	1.a
.	1F	.
.	.	4g/
.	.	4f/
=9	=9	=9
0C	1.G	1e
.	.	1g
.	4F/	.
.	4E/	.
=10	=10	=10
1r	0D	1f
1F	.	1f
=11	=11	=11
1E	1C	1.g
[1G	1r	.
.	.	4f/
.	.	4e/
=12	=12	=12
2G\]	1r	0d
2A\	.	.
1B	1G	.
=13	=13	=13
1c	2E/	1c
.	2F/	.
2B\	2G/	1r
[2c\	[2A/	.
=14	=14	=14
2c\]	2A/]	1r
4B\	4G/	.
4A\	4F/	.
1G	1E	1g
=15	=15	=15
2C/	1A	2e/
2D\	.	2f/
2E\	2G/	2g/
2F\	[2c\	[2a/
=16	=16	=16
1D	4c\]	2a/]
.	4A/	.
.	2B\	4g/
.	.	4f/
1C	1c	1e
=17	=17	=17
1F	2A/	1a
.	2c\	.
2G\	2B\	2g/
[2F\	[2A/	[2cc\
=18	=18	=18
2F\]	2A/]	4cc\]
.	.	4a/
2E\	2G/	2b\
2C/	2E/	2cc\
[2D\	[2F/	[2a/
=19	=19	=19
4D\]	2F/]	2a/]
4AA/	.	.
1C	1E	2g/
.	.	2e/
2r	2D/	[2f/
=20	=20	=20
1G	2E/	4f/]
.	.	4e/
.	2G/	1e
1A	1F	.
.	.	2d/
=21	=21	=21
2.B\	[0E	0e
4A\	.	.
2B\	.	.
[2c\	.	.
=22	=22	=22
2c\]	0E]	1r
4B\	.	.
4A\	.	.
1G	.	1g
=23	=23	=23
1c	0r	1a
2.d\	.	2.b\
4c\	.	4a/
=24	=24	=24
2d\	0r	2b\
1e	.	1cc
4d\	.	4b\
4c\	.	4a/
=25	=25	=25
2B\	1G	1g
2d\	.	.
2.c\	1A	1cc
4B\	.	.
=26	=26	=26
1G	2.B\	2.dd\
.	4A/	4cc\
2r	2B\	2dd\
[2C/	[2c\	[2ee\
=27	=27	=27
2C/]	2c\]	2ee\]
2D\	4B\	4dd\
.	4A/	4cc\
[1E	1G	1b
=28	=28	=28
2E\]	1c	2g/
1F	.	2.a/
.	2.d\	.
.	.	4g/
[2D\	.	4f/
.	4c\	4e/
=29	=29	=29
2D\]	2d\	2f/
2C/	1e	1g
2E\	.	.
2F\	4d\	4f/
.	4c\	4e/
=30	=30	=30
1G	1B	1d
2C/	1c	2e/
[2E\	.	[2g/
=31	=31	=31
2E\]	2B\	2g/]
2D\	1d	2f/
1F	.	1a
.	2c\	.
=32	=32	=32
1E	1e	2g/
.	.	1b
1r	2d\	.
.	2c\	[2a/
=33	=33	=33
1E	1B	2a/]
.	.	2g/
1F	1A	1a
=34	=34	=34
1G	0r	1b
2F\	.	1cc
[2A\	.	.
=35	=35	=35
2A\]	1B	1dd
2G\	.	.
1A	1c	2cc\
.	.	[2ee\
=36	=36	=36
1D	1d	2ee\]
.	.	2dd\
2r	2c\	1ee
2C/	[2e\	.
=37	=37	=37
1F	2e\]	1a
.	2d\	.
2E\	1e	2g/
[2A\	.	[2cc\
=38	=38	=38
4A\]	2A/	4cc\]
4G\	.	4b\
4F\	2c\	4a/
4E\	.	4g/
1D	2d\	2b\
.	[2f\	[2a/
=39	=39	=39
2C/	4f\]	4a/]
.	4e\	4g/
2D\	4d\	4f/
.	4c\	4e/
2BB-/	1d	1f
2D\	.	.
=40	=40	=40
0AA;	0e;	0e;
=41	=41	=41
1.C	1E	0r
.	[1E	.
[2G\	.	.
=42	=42	=42
2G\]	2E/]	0r
2A\	2F/	.
1B	1G	.
=43	=43	=43
1c	1A	0r
2B\	2G/	.
[2G\	[2E/	.
=44	=44	=44
2G\]	2E/]	0r
1c	4D/	.
.	4C/	.
.	1D	.
2B\	.	.
=45	=45	=45
1c	1C	1e
1C	2r	[1e
.	2c\	.
=46	=46	=46
2r	2B\	2e/]
2D\	2.A/	2f/
1E	.	1g
.	4G/	.
.	[2G/	.
=47	=47	=47
1D	2G/]	1a
.	2F#i/	.
2r	2.G/	2g/
2C/	.	[2e/
.	4A/	.
=48	=48	=48
2G\	2B\	2e/]
2A\	1c	4d/
.	.	4c/
1G	.	1d
.	2B\	.
=49	=49	=49
2r	1c	2c/
2A\	.	2cc\
2G\	1r	2b\
[2c\	.	[2a/
=50	=50	=50
2c\]	1C	4a/]
.	.	4g/
2B\	.	1g
1A	1D	.
.	.	2f#i/
=51	=51	=51
1G	1E	1g
1B	1G	1r
=52	=52	=52
1A	1F	1c
1A	1F	1d
=53	=53	=53
1G	1E	1e
1E	2r	1g
.	[2c\	.
=54	=54	=54
0D	2c\]	1f
.	4B\	.
.	4A/	.
.	1B	1f
=55	=55	=55
0C	1c	1e
.	2d\	2r
.	[2e\	[2cc\
=56	=56	=56
0G	2e\]	2cc\]
.	4d\	4b\
.	4c\	4a/
.	1d	1b
=57	=57	=57
1F	2r	1cc
.	2A/	.
2D\	2B\	2dd\
[2C/	[2c\	[2ee\
=58	=58	=58
2C/]	2c\]	2ee\]
2D\	4B\	4dd\
.	4A/	4cc\
1BB	1G	1dd
=59	=59	=59
1AA	2A/	2r
.	2c\	2a/
2r	2d\	2b\
2AA/	[2e\	[2cc\
=60	=60	=60
2C/	2e\]	2cc\]
2D\	4d\	1a
.	4c\	.
1E	1B	.
.	.	2g/
=61	=61	=61
2r	1A	1a
1A	.	.
.	1B	1d
2G\	.	.
=62	=62	=62
2A\	1c	2r
1c	.	1a
.	1d	.
2B\	.	2g/
=63	=63	=63
2A\	2r	2a/
2F\	1A	1cc
2G\	.	.
2E\	2G/	2b\
=64	=64	=64
1F	2A/	2a/
.	1c	2f/
1E	.	2g/
.	2B\	2e/
=65	=65	=65
2r	2A/	1f
2D\	2F/	.
2E\	2G/	1e
2G\	2E/	.
=66	=66	=66
2D\	1F	1a
2F\	.	.
1C	1E	2g/
.	.	[2e/
=67	=67	=67
2.AA/	1A	2e/]
.	.	2f/
4BB/	.	.
2.C/	2G/	2e/
.	2E/	4d/
4D\	.	4c/
=68	=68	=68
2E\	2G/	2B/
2AA/	2A/	1e
1D	1F	.
.	.	2d/
=69	=69	=69
0AAl	0El	0el
==	==	==
*-	*-	*-
!!!RDF**kern: l=long note in original notation
!!!RDF**kern: i=editorial accidental
!!!ENC:	Chris Gage 11-06-2014
!!!END:	2015/03/01/
!!!EED:	Jesse Rodin
!!!EEV:	2015/03/05/
!!!ONB:	Translated from MusicXML and edited on 2015/03/05/ by Craig Sapp
!!muse2ps: C^@{COM}^i2I150v85,85,150Q16
